svgs/light/thermometer.svg

<svg xmlns="http://www.w3.org/2000/svg" viewBox="0 0 512 512"><!--! Font Awesome Pro 6.3.0 by @fontawesome - https://fontawesome.com License - https://fontawesome.com/license (Commercial License) Copyright 2023 Fonticons, Inc. --><path d="M476.7 20.35C460 6.696 439.2 0 418.1 0c-26.28 .002-53.08 10.36-73.25 30.6L114.6 262.5C102.7 274.5 96.02 290.7 96.02 307.6l-.0146 85.81l-91.32 91.32c-6.25 6.25-6.25 16.38 0 22.62C7.813 510.4 11.91 512 16 512s8.188-1.562 11.31-4.688L118.6 416l84.7-.0215c16.93 0 33.16-6.712 45.16-18.67l235.5-234.7C518.9 127.8 526.2 61.11 476.7 20.35zM461.4 139.1L225.9 374.7C219.9 380.7 211.8 384 203.3 384H128l.0156-76.42c0-8.508 3.301-16.52 9.297-22.56l30.44-30.65l28.92 28.98C199.8 286.5 203.9 288.1 207.1 288.1s8.187-1.563 11.31-4.688c6.25-6.25 6.25-16.38 0-22.63L190.3 231.7l41.23-41.52l29.14 29.2c3.125 3.125 7.218 4.688 11.31 4.688s8.187-1.563 11.31-4.688c6.25-6.25 6.25-16.38 0-22.63L254.1 167.5l41.23-41.52l29.36 29.41c3.125 3.125 7.218 4.688 11.31 4.688s8.187-1.563 11.31-4.688c6.25-6.25 6.25-16.38 0-22.63l-29.43-29.48l49.69-50.04C380.1 39.72 399.4 32 418.1 32c14.59 0 27.85 4.541 38.27 13.05c18.36 15.12 22.93 33.08 23.53 45.48C480.8 108.7 473.7 127.7 461.4 139.1z"/></svg>

<svg xmlns="http://www.w3.org/2000/svg" viewBox="0 0 512 512"><!-- Font Awesome Pro 6.0.0-alpha2 by @fontawesome - https://fontawesome.com License - https://fontawesome.com/license (Commercial License) --><path d="M476.738 20.354C460.027 6.699 439.246 0 418.121 0C391.846 0.002 365.037 10.367 344.875 30.607L114.613 262.479C102.705 274.471 96.023 290.686 96.023 307.584L96.006 393.369L4.688 484.687C-1.563 490.937 -1.563 501.062 4.688 507.312C7.812 510.438 11.906 512 16 512S24.187 510.438 27.312 507.312L118.625 416H203.318C220.252 416 236.496 409.287 248.492 397.334L483.986 162.656C518.859 127.768 526.232 61.117 476.738 20.354ZM461.398 139.99L225.904 374.666C219.865 380.686 211.844 384 203.318 384H128.008L128.023 307.584C128.023 299.076 131.324 291.064 137.32 285.027L167.756 254.381L196.687 283.313C199.812 286.438 203.906 288 208 288S216.188 286.438 219.312 283.312C225.562 277.062 225.562 266.937 219.312 260.688L190.301 231.676L231.531 190.156L260.687 219.312C263.812 222.438 267.906 224 272 224S280.188 222.438 283.312 219.312C289.562 213.062 289.562 202.937 283.312 196.688L254.078 167.453L295.309 125.934L324.687 155.312C327.812 158.438 331.906 160 336 160S344.188 158.438 347.312 155.312C353.562 149.062 353.562 138.937 347.312 132.688L317.855 103.23L367.547 53.191C380.961 39.725 399.393 32.002 418.123 32C432.709 32 445.975 36.541 456.395 45.055C474.756 60.178 479.326 78.133 479.926 90.533C480.805 108.727 473.689 127.693 461.398 139.99Z"/></svg>
